src/assets/svg/react.svg

<svg width="58" height="58" viewBox="0 0 58 58" fill="none" xmlns="http://www.w3.org/2000/svg">
<path d="M33.8555 28.9563C33.8555 26.3564 31.6817 24.2486 29 24.2486C26.3185 24.2486 24.1445 26.3564 24.1445 28.9563C24.1445 31.5565 26.3185 33.6643 29 33.6643C31.6817 33.6643 33.8555 31.5565 33.8555 28.9563Z" fill="#53C1DE"/>
<path fill-rule="evenodd" clip-rule="evenodd" d="M44.7694 20.2161C45.7948 16.1762 47.0837 8.68456 42.5401 6.14467C38.0178 3.61584 32.1328 8.46152 29.0253 11.3701C25.9268 8.49051 19.8765 3.66554 15.3367 6.2135C10.8161 8.7508 12.2102 16.1182 13.2583 20.1834C9.04131 21.3447 1.8125 23.846 1.8125 28.9563C1.8125 34.0522 9.03379 36.7734 13.2258 37.9336C12.1738 42.0214 10.8496 49.2836 15.3759 51.8151C19.9326 54.3626 25.9641 49.6525 29.1003 46.7121C32.2278 49.6378 38.0563 54.3787 42.5795 51.8401C47.1171 49.2933 45.9352 41.9021 44.8871 37.8132C48.9507 36.6506 56.1875 33.9886 56.1875 28.9563C56.1875 23.895 48.92 21.3735 44.7694 20.2161ZM44.2544 35.6464C43.5662 33.5341 42.6373 31.2879 41.501 28.9675C42.5856 26.702 43.4784 24.4847 44.1473 22.386C47.19 23.2413 53.8648 25.1961 53.8648 28.9563C53.8648 32.7518 47.4597 34.7251 44.2544 35.6464ZM41.4156 49.8909C38.0408 51.7849 33.0276 47.2512 30.718 45.0966C32.2501 43.4718 33.7814 41.5828 35.2758 39.4852C37.9046 39.2591 40.388 38.8893 42.6402 38.3846C43.3779 41.2768 44.8054 47.9882 41.4156 49.8909ZM16.5366 49.8638C13.1613 47.9769 14.7041 41.4965 15.478 38.4854C17.7051 38.963 20.1705 39.3067 22.8056 39.5139C24.3098 41.5664 25.8853 43.4531 27.4731 45.1052C25.5114 46.9451 19.9276 51.7596 16.5366 49.8638ZM4.1352 28.9563C4.1352 25.1466 10.77 23.206 13.882 22.3528C14.5626 24.4987 15.4551 26.7423 16.5322 29.0112C15.4411 31.3138 14.5358 33.5931 13.849 35.7642C10.8817 34.9407 4.1352 32.7684 4.1352 28.9563ZM16.5005 8.16267C19.8895 6.26067 25.1479 10.8928 27.3975 12.9777C25.818 14.6224 24.2569 16.4948 22.7656 18.5355C20.2083 18.7653 17.7602 19.1344 15.5097 19.6288C14.6654 16.35 13.1151 10.0626 16.5005 8.16267ZM36.9374 20.9835C38.6725 21.1958 40.3346 21.4781 41.8954 21.8237C41.4269 23.2798 40.8428 24.8025 40.1551 26.3634C39.158 24.5291 38.0877 22.7317 36.9374 20.9835ZM29.026 14.5872C30.0973 15.7125 31.1704 16.9692 32.2258 18.3325C30.0848 18.2344 27.9402 18.2339 25.7992 18.3311C26.8556 16.9804 27.9378 15.7256 29.026 14.5872ZM17.8649 26.3618C17.1885 24.8062 16.6097 23.2768 16.1371 21.7999C17.6885 21.4632 19.3429 21.1881 21.0667 20.9793C19.9132 22.7236 18.8447 24.5204 17.8649 26.3618ZM21.1163 37.0941C19.3355 36.9014 17.656 36.6403 16.1051 36.313C16.5852 34.8099 17.1767 33.2476 17.8676 31.6587C18.8609 33.5191 19.9456 35.3333 21.1163 37.0941ZM29.0902 43.4846C27.9893 42.3327 26.8912 41.0587 25.8187 39.6884C27.972 39.7705 30.1294 39.7706 32.2824 39.6775C31.2236 41.0727 30.1544 42.3485 29.0902 43.4846ZM40.1772 31.5777C40.9039 33.1839 41.5166 34.7378 42.0032 36.2154C40.4265 36.5643 38.7244 36.8452 36.9309 37.0538C38.0897 35.2726 39.1769 33.4472 40.1772 31.5777ZM33.9794 37.3267C30.6859 37.5549 27.3716 37.5525 24.0769 37.3454C22.2047 34.6939 20.5382 31.9054 19.0997 29.0105C20.5312 26.1215 22.1856 23.3385 24.049 20.6911C27.3462 20.4495 30.6636 20.4489 33.9606 20.6925C35.8079 23.3398 37.4599 26.1156 38.9246 28.9785C37.4772 31.866 35.8141 34.6546 33.9794 37.3267ZM41.3799 8.0957C44.7698 9.99147 43.2609 16.7244 42.5204 19.6521C40.2646 19.1475 37.8148 18.7718 35.25 18.5385C33.7558 16.4757 32.2078 14.6 30.6537 12.9766C32.9323 10.8467 38.0228 6.21848 41.3799 8.0957Z" fill="#53C1DE"/>
</svg>

<svg width="58" height="58" fill="none" xmlns="http://www.w3.org/2000/svg"><path d="M33.855 28.956c0-2.6-2.173-4.707-4.855-4.707-2.681 0-4.855 2.107-4.855 4.707 0 2.6 2.174 4.708 4.855 4.708 2.682 0 4.855-2.108 4.855-4.708z" fill="#53C1DE"/><path fill-rule="evenodd" clip-rule="evenodd" d="M44.77 20.216c1.025-4.04 2.314-11.531-2.23-14.071-4.522-2.53-10.407 2.317-13.515 5.225-3.098-2.88-9.148-7.704-13.688-5.156-4.52 2.537-3.127 9.904-2.079 13.97-4.217 1.16-11.445 3.662-11.445 8.772 0 5.096 7.22 7.817 11.413 8.978-1.052 4.087-2.376 11.35 2.15 13.881 4.557 2.548 10.588-2.162 13.724-5.103 3.128 2.926 8.956 7.667 13.48 5.128 4.537-2.547 3.355-9.938 2.307-14.027 4.064-1.162 11.3-3.824 11.3-8.857 0-5.061-7.267-7.582-11.418-8.74zm-.516 15.43c-.688-2.112-1.617-4.358-2.753-6.678 1.085-2.266 1.977-4.483 2.646-6.582 3.043.855 9.718 2.81 9.718 6.57 0 3.796-6.405 5.77-9.61 6.69zm-2.838 14.245c-3.375 1.894-8.388-2.64-10.698-4.794 1.532-1.625 3.063-3.514 4.558-5.612 2.629-.226 5.112-.596 7.364-1.1.738 2.892 2.165 9.603-1.224 11.506zm-24.88-.027c-3.375-1.887-1.832-8.367-1.058-11.379 2.227.478 4.693.822 7.328 1.029a55.149 55.149 0 0 0 4.667 5.591c-1.962 1.84-7.545 6.655-10.936 4.759zm-12.4-20.908c0-3.81 6.634-5.75 9.746-6.603a53.038 53.038 0 0 0 2.65 6.658c-1.09 2.303-1.996 4.582-2.683 6.753-2.967-.823-9.714-2.996-9.714-6.808zM16.5 8.163c3.39-1.902 8.648 2.73 10.898 4.815a54.332 54.332 0 0 0-4.632 5.557c-2.558.23-5.006.6-7.256 1.094-.845-3.279-2.395-9.566.99-11.466zm20.437 12.82c1.736.213 3.398.495 4.958.84a47.131 47.131 0 0 1-1.74 4.54 74.598 74.598 0 0 0-3.218-5.38zm-7.911-6.396a48.525 48.525 0 0 1 3.2 3.745 70.528 70.528 0 0 0-6.427 0 50.06 50.06 0 0 1 3.227-3.745zM17.865 26.362a48.755 48.755 0 0 1-1.728-4.562 53.894 53.894 0 0 1 4.93-.82 65.762 65.762 0 0 0-3.202 5.382zm3.251 10.732a50.899 50.899 0 0 1-5.01-.781 49.516 49.516 0 0 1 1.762-4.654 65.76 65.76 0 0 0 3.248 5.435zm7.974 6.39a51.023 51.023 0 0 1-3.271-3.796c2.153.082 4.31.083 6.463-.01a48.217 48.217 0 0 1-3.192 3.807zm11.087-11.906a46.96 46.96 0 0 1 1.826 4.637c-1.577.35-3.279.63-5.072.839a74.515 74.515 0 0 0 3.246-5.476zm-6.198 5.749a75.171 75.171 0 0 1-9.902.018 63.282 63.282 0 0 1-4.977-8.334 63.233 63.233 0 0 1 4.949-8.32 67.582 67.582 0 0 1 9.912.002 70.923 70.923 0 0 1 4.964 8.285 70.923 70.923 0 0 1-4.946 8.349zm7.4-29.231c3.39 1.895 1.882 8.628 1.141 11.556a57.273 57.273 0 0 0-7.27-1.114c-1.494-2.062-3.042-3.938-4.596-5.561 2.278-2.13 7.369-6.759 10.726-4.881z" fill="#53C1DE"/></svg>
